icons/clock/clock-plus.svg

<svg width="14" height="14" viewBox="0 0 14 14" fill="none"
    xmlns="http://www.w3.org/2000/svg">
    <path d="M7 3.5C7.27614 3.5 7.5 3.72386 7.5 4V6.71094L8.98242 7.56738C9.22122 7.70558 9.30302 8.011 9.16504 8.25C9.02698 8.4891 8.72155 8.5706 8.48242 8.43262L6.75 7.43262C6.74616 7.4304 6.74301 7.42711 6.73926 7.4248C6.72245 7.41447 6.70682 7.40282 6.69141 7.39062C6.67966 7.38137 6.66795 7.37244 6.65723 7.3623C6.64445 7.35022 6.63351 7.33661 6.62207 7.32324C6.61302 7.31266 6.6028 7.30321 6.59473 7.29199C6.58387 7.27695 6.57557 7.26037 6.56641 7.24414C6.55945 7.23176 6.55176 7.21992 6.5459 7.20703C6.5394 7.1928 6.53446 7.178 6.5293 7.16309C6.52359 7.14659 6.51763 7.13027 6.51367 7.11328C6.51041 7.09921 6.50888 7.08481 6.50684 7.07031C6.50423 7.05214 6.50157 7.03404 6.50098 7.01562C6.50082 7.01043 6.5 7.00523 6.5 7V4C6.5 3.72386 6.72386 3.5 7 3.5Z" fill="red"/>
    <path d="M7 2C9.76142 2 12 4.23858 12 7C12 7.45252 11.9389 7.89073 11.8262 8.30762C11.6454 7.96173 11.3348 7.69506 10.958 7.57324C10.9849 7.38598 11 7.1947 11 7C11 4.79086 9.20914 3 7 3C4.79086 3 3 4.79086 3 7C3 9.20914 4.79086 11 7 11C7.19063 11 7.37801 10.9857 7.56152 10.96C7.67246 11.336 7.92714 11.6493 8.26172 11.8389C7.85863 11.9437 7.4359 12 7 12C4.23858 12 2 9.76142 2 7C2 4.23858 4.23858 2 7 2Z" fill="green"/>
    <path d="M9 10.5353H12M10.4975 9V12" stroke="blue" stroke-linecap="round"/>
</svg>

<svg xmlns="http://www.w3.org/2000/svg" width="14" height="14" fill="none" viewBox="0 0 14 14"><path fill="red" d="M7 3.5a.5.5 0 0 1 .5.5v2.71l1.482.857a.5.5 0 0 1-.5.866l-1.732-1-.01-.008-.049-.034-.034-.029q-.018-.018-.035-.039-.015-.015-.027-.031-.016-.023-.029-.048l-.02-.037q-.01-.021-.017-.044l-.015-.05q-.005-.02-.007-.043L6.5 7.016V4a.5.5 0 0 1 .5-.5"/><path fill="green" d="M7 2a5 5 0 0 1 4.826 6.308 1.5 1.5 0 0 0-.868-.735q.041-.28.042-.573a4 4 0 1 0-3.438 3.96c.11.376.365.69.7.879A5 5 0 1 1 7 2"/><path stroke="#00f" stroke-linecap="round" d="M9 10.535h3M10.498 9v3"/></svg>
